X:42
T:B042-  Bread of God
Q:1/4=120
L:1/4
M:C|
K:F
f3/2c/2 f/2c/2 d3/4^f/4|c3/2F/2G3/2A/2|\
d/2G/2G/2A/2 c/2d/2c/2A/2|egg(f/2e/2)|\
f3/2a/2 b/2a/2g/2e/2|d/2c/2 (d/4e/4f/2)G3/2A/2|\
c/2f/2d/2G/2 c/2A/2f/2c/2|AF.FG3/4c/4|\
(c3/4d/4 c/2)d/2 f3/2d/2|(c/2d/2)(c/2A/2) G3/2F/2|\
B/2d/2c/2A/2 f/2d/2e/2c/2|Gcc/2c/2 d3/4e/4|\
f3/2a/2 b/4a/4g/4f/4 g3/4a/4|\
f3/4F/4 (G/4A/4B/2)A G/2F/2|d3/2c/2 f3/2g/2|
af.f2|]

